X: 14455
T: Game Cock, The
R: slide
M: 12/8
K: Dmajor
|:E|F2 A d2 A B^AB d2 =A|Bcd A2 F E3 E2 G|
F2 A d2 A B^AB d2 =A|Bcd A2 F D3 D2:|
|:g|f3 f2 e d2 e f2 g|a2 f d2 f e3 e^de|
f3 f2 e d2 e f2 e|d2 B A2 F D3 D2:|

